X: 41393
T: Twelve Pins, The
R: reel
M: 4/4
K: Gmajor
|:dB~B2 dBGB|dA~A2 dAFA|DEFG ABcA|defg afge|
dB~B2 dBGB|dA~A2 dAFA|DEFG ABcA|d2cd AGG2:|
~f3e defg|adfd cAAB|cBAF DFAB|cedB cAA2|
~f3e defg|adfd cAAB|c2cB cBAB|cAdc AGG2|
~f3e defg|adfd cAAB|cBAB cdeg|abga fdde|
fefg ~a3g|f2ed cBAB|c2cB cBAB|cedc AGG2||

